icons/svg/seamark_big/small_craft_facility_restaurant.svg

<?xml version="1.0" encoding="UTF-8" standalone="no"?>
<svg
   xmlns:dc="http://purl.org/dc/elements/1.1/"
   xmlns:cc="http://creativecommons.org/ns#"
   xmlns:rdf="http://www.w3.org/1999/02/22-rdf-syntax-ns#"
   xmlns:svg="http://www.w3.org/2000/svg"
   xmlns="http://www.w3.org/2000/svg"
   xmlns:sodipodi="http://sodipodi.sourceforge.net/DTD/sodipodi-0.dtd"
   xmlns:inkscape="http://www.inkscape.org/namespaces/inkscape"
   width="1060"
   height="1060"
   id="svg2"
   version="1.1"
   inkscape:version="0.48.4 r9939"
   sodipodi:docname="small_craft_facility_chandler.svg">
  <defs
     id="defs13">
    <marker
       inkscape:stockid="TriangleOutM"
       orient="auto"
       refY="0.0"
       refX="0.0"
       id="TriangleOutM"
       style="overflow:visible">
      <path
         id="path4014"
         d="M 5.77,0.0 L -2.88,5.0 L -2.88,-5.0 L 5.77,0.0 z "
         style="fill-rule:evenodd;stroke:#000000;stroke-width:1.0pt"
         transform="scale(0.4)" />
    </marker>
    <marker
       inkscape:stockid="TriangleOutS"
       orient="auto"
       refY="0.0"
       refX="0.0"
       id="TriangleOutS"
       style="overflow:visible">
      <path
         id="path4017"
         d="M 5.77,0.0 L -2.88,5.0 L -2.88,-5.0 L 5.77,0.0 z "
         style="fill-rule:evenodd;stroke:#000000;stroke-width:1.0pt"
         transform="scale(0.2)" />
    </marker>
    <marker
       inkscape:stockid="Arrow2Send"
       orient="auto"
       refY="0.0"
       refX="0.0"
       id="Arrow2Send"
       style="overflow:visible;">
      <path
         id="path3902"
         style="fill-rule:evenodd;stroke-width:0.62500000;stroke-linejoin:round;"
         d="M 8.7185878,4.0337352 L -2.2072895,0.016013256 L 8.7185884,-4.0017078 C 6.9730900,-1.6296469 6.9831476,1.6157441 8.7185878,4.0337352 z "
         transform="scale(0.3) rotate(180) translate(-2.3,0)" />
    </marker>
    <marker
       inkscape:stockid="Arrow1Send"
       orient="auto"
       refY="0.0"
       refX="0.0"
       id="Arrow1Send"
       style="overflow:visible;">
      <path
         id="path3884"
         d="M 0.0,0.0 L 5.0,-5.0 L -12.5,0.0 L 5.0,5.0 L 0.0,0.0 z "
         style="fill-rule:evenodd;stroke:#000000;stroke-width:1.0pt;"
         transform="scale(0.2) rotate(180) translate(6,0)" />
    </marker>
    <marker
       inkscape:stockid="Arrow1Lend"
       orient="auto"
       refY="0.0"
       refX="0.0"
       id="Arrow1Lend"
       style="overflow:visible;">
      <path
         id="path3872"
         d="M 0.0,0.0 L 5.0,-5.0 L -12.5,0.0 L 5.0,5.0 L 0.0,0.0 z "
         style="fill-rule:evenodd;stroke:#000000;stroke-width:1.0pt;"
         transform="scale(0.8) rotate(180) translate(12.5,0)" />
    </marker>
    <inkscape:path-effect
       effect="gears"
       id="path-effect3774"
       is_visible="true"
       teeth="6"
       phi="-1.2" />
    <inkscape:path-effect
       effect="bend_path"
       id="path-effect3772"
       is_visible="false"
       bendpath="m 95.790098,316.51174 c 144.429032,-206.42506 223.313032,-11.7428 339.548092,0"
       prop_scale="1.19"
       scale_y_rel="false"
       vertical="false"
       bendpath-nodetypes="cc" />
  </defs>
  <sodipodi:namedview
     pagecolor="#ffffff"
     bordercolor="#666666"
     borderopacity="1"
     objecttolerance="10"
     gridtolerance="10"
     guidetolerance="10"
     inkscape:pageopacity="0"
     inkscape:pageshadow="2"
     inkscape:window-width="1920"
     inkscape:window-height="1004"
     id="namedview11"
     showgrid="false"
     inkscape:zoom="1.1508772"
     inkscape:cx="487.32933"
     inkscape:cy="580.50765"
     inkscape:window-x="1680"
     inkscape:window-y="0"
     inkscape:window-maximized="1"
     inkscape:current-layer="svg2"
     inkscape:snap-object-midpoints="true"
     inkscape:snap-center="true"
     inkscape:snap-global="true"
     inkscape:snap-midpoints="true"
     inkscape:object-nodes="true"
     inkscape:snap-smooth-nodes="true"
     inkscape:object-paths="true">
    <inkscape:grid
       type="xygrid"
       id="grid2989" />
  </sodipodi:namedview>
  <metadata
     id="metadata2975">image/svg+xmlen<rdf:RDF>
  <cc:Work
     rdf:about="">
    <dc:format>image/svg+xml</dc:format>
    <dc:type
       rdf:resource="http://purl.org/dc/dcmitype/StillImage" />
    <dc:title></dc:title>
  </cc:Work>
</rdf:RDF>
</metadata>
  <path
     d="m 487.36752,559.23841 c 20.69928,-9.60427 35.66765,-37.38988 35.66765,-70.18824 0,-40.75462 -34.0015,-85.36778 -51.60602,-85.36778 -17.60398,0 -51.60658,44.61316 -51.60658,85.36778 0,32.79836 14.96948,60.58397 35.6682,70.18824 l -4.28469,97.0792 40.44558,0 -4.28414,-97.0792 z"
     style="color:#000000;fill:#930093;fill-opacity:1;fill-rule:nonzero;stroke:none;stroke-width:10;marker:none;visibility:visible;display:inline;overflow:visible;enable-background:accumulate"
     id="path2110"
     inkscape:connector-curvature="0" />
  <path
     d="m 611.91946,575.73492 c 20.69871,-9.60427 28.25796,-21.95575 28.25796,-54.75411 l -5.37841,-111.52409 c 0,-2.1308 -1.72773,-3.85854 -3.85908,-3.85854 l -2.53331,0 c -2.1297,0 -3.85799,1.72719 -3.85799,3.85854 l 1.79263,111.52409 -11.14009,0 -2.822,-112.61011 c 0,-2.1308 -1.72774,-3.85854 -3.85908,-3.85854 l -3.29656,0 c -2.13025,0 -3.85798,1.72774 -3.85798,3.85854 l 1.52593,112.61011 -13.82243,0 1.52593,-112.61011 c 0,-2.1308 -1.72773,-3.85854 -3.85853,-3.85854 l -3.29711,0 c -2.13079,0 -3.85798,1.72774 -3.85798,3.85854 l -2.822,112.61011 -10.90694,0 1.79262,-111.51035 c 0,-2.13079 -1.72774,-3.85853 -3.85854,-3.85853 l -2.53276,0 c -2.1308,0 -3.85908,1.72774 -3.85908,3.85853 l -5.59452,111.51035 c 0,32.79836 7.54166,45.14984 28.23982,54.75411 l -4.28414,80.58269 40.44614,0 -4.28249,-80.58269 z"
     style="color:#000000;fill:#930093;fill-opacity:1;fill-rule:nonzero;stroke:none;stroke-width:10;marker:none;visibility:visible;display:inline;overflow:visible;enable-background:accumulate"
     id="path2112"
     inkscape:connector-curvature="0" />
</svg>

<svg width="1060" height="1060" viewBox="0 0 1060 1060" fill="none" xmlns="http://www.w3.org/2000/svg">
<path d="M487.368 559.239C508.067 549.634 523.035 521.849 523.035 489.05C523.035 448.296 489.034 403.683 471.429 403.683C453.825 403.683 419.823 448.296 419.823 489.05C419.823 521.849 434.792 549.634 455.491 559.239L451.206 656.318H491.652L487.368 559.239Z" fill="#930093"/>
<path d="M611.92 575.735C632.618 566.131 640.178 553.779 640.178 520.981L634.799 409.457C634.799 407.326 633.071 405.598 630.94 405.598H628.407C626.277 405.598 624.549 407.325 624.549 409.457L626.341 520.981H615.201L612.379 408.371C612.379 406.24 610.652 404.512 608.52 404.512H605.224C603.093 404.512 601.366 406.24 601.366 408.371L602.892 520.981H589.069L590.595 408.371C590.595 406.24 588.867 404.512 586.737 404.512H583.44C581.309 404.512 579.582 406.24 579.582 408.371L576.76 520.981H565.853L567.645 409.471C567.645 407.34 565.917 405.612 563.787 405.612H561.254C559.123 405.612 557.395 407.34 557.395 409.471L551.8 520.981C551.8 553.779 559.342 566.131 580.04 575.735L575.756 656.318H616.202L611.92 575.735H611.92Z" fill="#930093"/>
</svg>
